Yaru++/apps/scalable/wps-office-wpsmain.svg

<svg enable-background="new" height="256" viewBox="0 0 256 256" width="256" xmlns="http://www.w3.org/2000/svg" xmlns:xlink="http://www.w3.org/1999/xlink">
  <linearGradient id="linearGradient4358" gradientUnits="userSpaceOnUse" x1="88" x2="488" y1="88" y2="488">
    <stop offset="0" stop-opacity=".588235"/>
    <stop offset="1" stop-opacity=".205556"/>
  </linearGradient>
  <filter id="filter4380" color-interpolation-filters="sRGB" height="1.088" width="1.106" x="-.05" y="-.04">
    <feGaussianBlur stdDeviation="8.48"/>
  </filter>
  <filter id="filter4346" color-interpolation-filters="sRGB" height="1.022" width="1.026" x="-.01" y="-.01">
    <feGaussianBlur stdDeviation="2.12"/>
  </filter>
  <path d="m141.84323 74c-70.59344 0-78.18921 7.250835-77.84323 77.98706v146.01294 146.01294c-.34598 70.73623 7.24979 77.98706 77.84323 77.98706h292.31354c70.59344 0 79.78033-7.27652 77.84323-77.98706v-146.01294-146.01294c0-70.737067-7.24979-77.98706-77.84323-77.98706z" filter="url(#filter4346)" opacity=".1" transform="matrix(.5 0 0 .5 -14.116488 -20.825537)"/>
  <path d="m141.84323 74c-70.59344 0-78.18921 7.250835-77.84323 77.98706v146.01294 146.01294c-.34598 70.73623 7.24979 77.98706 77.84323 77.98706h292.31354c70.59344 0 79.78033-7.27652 77.84323-77.98706v-146.01294-146.01294c0-70.737067-7.24979-77.98706-77.84323-77.98706z" fill="url(#linearGradient4358)" filter="url(#filter4380)" opacity=".3" transform="matrix(.5 0 0 .5 -14.116488 -20.825235)"/>
  <path d="m55.695112 13.174464c-36.098811 0-39.983003 3.690159-39.806081 39.689839v74.310167 74.31016c-.176922 35.99969 3.70727 39.68984 39.806081 39.68984h148.387318c36.09881 0 40.77464-3.70276 39.80608-39.68984v-74.31016-74.310167c0-36.00011-3.70727-39.689839-39.80608-39.689839z" opacity=".2"/>
  <path d="m202.95649 15.174464c35.29673 0 39.09461 3.625419 38.92162 38.993529v73.006477 73.00647c.17299 35.36812-3.62489 38.99353-38.92162 38.99353h-146.156758c-35.296716 0-38.921616-3.625-38.921616-38.99353v-73.00647-73.006477c0-35.36853 3.6249-38.993529 38.921616-38.993529z" fill="#37a6e6"/>
  <path d="m56.805392 15.174464c-35.296728 0-39.09487 3.626029-38.92188 38.994139v2c-.17299-35.36811 3.625152-38.99414 38.92188-38.99414h146.156238c35.29673 0 38.92188 3.62561 38.92188 38.99414v-2c0-35.36853-3.62515-38.994139-38.92188-38.994139z" fill="#fff" opacity=".3"/>
  <path d="m56.810792 239.17447c-35.296731 0-39.094875-3.62603-38.921885-38.99414v-2c-.17299 35.36811 3.625154 38.99414 38.921885 38.99414h146.156238c35.29673 0 38.92188-3.62561 38.92188-38.99414v2c0 35.36853-3.62515 38.99414-38.92188 38.99414z" opacity=".2"/>
  <path d="m81.71875 67.091797a12.018171 12.018171 0 0 0 -11.835938 12.1875v95.962893a12.018171 12.018171 0 0 0 20.214844 8.78515l39.783204-37.13086 39.7832 37.13086a12.018171 12.018171 0 0 0 20.21485-8.78515v-95.962893a12.018171 12.018171 0 1 0 -24.03321 0v68.308593l-27.76562-25.91406a12.018171 12.018171 0 0 0 -16.39844 0l-27.765624 25.91406v-68.308593a12.018171 12.018171 0 0 0 -12.197266-12.1875z" fill="#e8f1ff"/>
  <path d="m177.70508 67.068359a12.018171 12.018171 0 0 0 -11.85938 12.210938v2a12.018171 12.018171 0 1 1 24.03321 0v-2a12.018171 12.018171 0 0 0 -12.17383-12.210938zm-95.98633.023438a12.018171 12.018171 0 0 0 -11.835938 12.1875v2a12.018171 12.018171 0 0 1 11.835938-12.1875 12.018171 12.018171 0 0 1 12.197266 12.1875v-2a12.018171 12.018171 0 0 0 -12.197266-12.1875zm47.57031 51.365233a12.018171 12.018171 0 0 0 -7.60742 3.2168l-27.765624 25.91406v2l27.765624-25.91406a12.018171 12.018171 0 0 1 16.39844 0l27.76562 25.91406v-2l-27.76562-25.91406a12.018171 12.018171 0 0 0 -8.79102-3.2168z" fill="#fff" opacity=".3"/>
  <path d="m129.88086 144.89648-39.783204 37.13086a12.018171 12.018171 0 0 1 -20.214844-8.78515v2a12.018171 12.018171 0 0 0 20.214844 8.78515l39.783204-37.13086 39.7832 37.13086a12.018171 12.018171 0 0 0 20.21485-8.78515v-2a12.018171 12.018171 0 0 1 -20.21485 8.78515z" opacity=".2"/>
</svg>

<svg xmlns="http://www.w3.org/2000/svg" xmlns:xlink="http://www.w3.org/1999/xlink" style="enable-background:new" width="256" height="256" version="1.0" viewBox="0 0 256 256">
 <title id="title4162">
  Adwaita Icon Template
 </title>
 <defs>
  <linearGradient id="linearGradient1115">
   <stop id="stop1103" offset="0" style="stop-color:#d5d3cf"/>
   <stop style="stop-color:#e3e2df" id="stop1105" offset=".038"/>
   <stop style="stop-color:#c0bfbc" id="stop1107" offset=".077"/>
   <stop style="stop-color:#c0bfbc" id="stop1109" offset=".923"/>
   <stop style="stop-color:#e3e2df" id="stop1111" offset=".962"/>
   <stop id="stop1113" offset="1" style="stop-color:#d5d3cf"/>
  </linearGradient>
  <linearGradient id="linearGradient6058">
   <stop style="stop-color:#ffffff" id="stop6054" offset="0"/>
   <stop style="stop-color:#f6f5f4" id="stop6056" offset="1"/>
  </linearGradient>
  <linearGradient id="paint3_linear-2-6-5" x2="1" gradientTransform="matrix(0,6,-12,0,-64,209.99687)" gradientUnits="userSpaceOnUse">
   <stop id="stop91-0-7-4" stop-color="#C01C27"/>
   <stop id="stop93-2-5-7" offset="1" stop-color="#E01B24"/>
  </linearGradient>
  <linearGradient id="linearGradient1097" x1="43.844" x2="-60" y1="234" y2="234" gradientTransform="matrix(1.0015061,0,0,0.99993452,72.09037,56.015192)" gradientUnits="userSpaceOnUse" xlink:href="#linearGradient1115"/>
  <radialGradient id="radialGradient1099" cx="-24.239" cy="225.596" r="24" fx="-24.239" fy="225.596" gradientTransform="matrix(1.757743,-9.5621778e-8,3.7652438e-8,1.9495846,106.60563,-336.54495)" gradientUnits="userSpaceOnUse" xlink:href="#linearGradient6058"/>
  <linearGradient id="linearGradient1383" x2="1" gradientTransform="matrix(0,6,-12,0,-264,209.99687)" gradientUnits="userSpaceOnUse" xlink:href="#paint3_linear-2-6-5"/>
  <linearGradient id="linearGradient4358" x1="88" x2="488" y1="88" y2="488" gradientUnits="userSpaceOnUse" xlink:href="#linearGradient4360"/>
  <linearGradient id="linearGradient4360">
   <stop id="stop4362" offset="0" style="stop-color:#000000;stop-opacity:0.58823532"/>
   <stop id="stop4366" offset="1" style="stop-color:#000000;stop-opacity:0.20555556"/>
  </linearGradient>
  <filter style="color-interpolation-filters:sRGB" id="filter4380" width="1.106" height="1.088" x="-.05" y="-.04">
   <feGaussianBlur id="feGaussianBlur4382" stdDeviation="8.48"/>
  </filter>
  <filter style="color-interpolation-filters:sRGB" id="filter4346" width="1.026" height="1.022" x="-.01" y="-.01">
   <feGaussianBlur id="feGaussianBlur4348" stdDeviation="2.12"/>
  </filter>
 </defs>
 <path style="opacity:0.1;filter:url(#filter4346)" d="M 141.84323,74 C 71.24979,74 63.65402,81.250835 64,151.98706 V 298 444.01294 C 63.65402,514.74917 71.24979,522 141.84323,522 H 434.15677 C 504.75021,522 513.9371,514.72348 512,444.01294 V 298 151.98706 C 512,81.249993 504.75021,74 434.15677,74 Z" transform="matrix(0.5,0,0,0.5,-14.116488,-20.825537)"/>
 <path d="M 141.84323,74 C 71.24979,74 63.65402,81.250835 64,151.98706 V 298 444.01294 C 63.65402,514.74917 71.24979,522 141.84323,522 H 434.15677 C 504.75021,522 513.9371,514.72348 512,444.01294 V 298 151.98706 C 512,81.249993 504.75021,74 434.15677,74 Z" transform="matrix(0.5,0,0,0.5,-14.116488,-20.825235)" style="opacity:0.3;fill:url(#linearGradient4358);filter:url(#filter4380)"/>
 <path style="opacity:0.2" d="m 55.695112,13.174464 c -36.098811,0 -39.983003,3.690159 -39.806081,39.689839 v 74.310167 74.31016 c -0.176922,35.99969 3.70727,39.68984 39.806081,39.68984 H 204.08243 c 36.09881,0 40.77464,-3.70276 39.80608,-39.68984 V 127.17447 52.864303 c 0,-36.00011 -3.70727,-39.689839 -39.80608,-39.689839 z"/>
 <path style="fill:#37a6e6" d="m 202.95649,15.174464 c 35.29673,0 39.09461,3.625419 38.92162,38.993529 v 73.006477 73.00647 c 0.17299,35.36812 -3.62489,38.99353 -38.92162,38.99353 H 56.799732 c -35.296716,0 -38.921616,-3.625 -38.921616,-38.99353 V 127.17447 54.167993 c 0,-35.36853 3.6249,-38.993529 38.921616,-38.993529 z"/>
 <path style="opacity:0.3;fill:#ffffff" d="m 56.805392,15.174464 c -35.296728,0 -39.09487,3.626029 -38.92188,38.994139 v 2 c -0.17299,-35.36811 3.625152,-38.99414 38.92188,-38.99414 H 202.96163 c 35.29673,0 38.92188,3.62561 38.92188,38.99414 v -2 c 0,-35.36853 -3.62515,-38.994139 -38.92188,-38.994139 z"/>
 <path style="opacity:0.2" d="m 56.810792,239.17447 c -35.296731,0 -39.094875,-3.62603 -38.921885,-38.99414 v -2 c -0.17299,35.36811 3.625154,38.99414 38.921885,38.99414 H 202.96703 c 35.29673,0 38.92188,-3.62561 38.92188,-38.99414 v 2 c 0,35.36853 -3.62515,38.99414 -38.92188,38.99414 z"/>
 <path style="fill:#e8f1ff" d="m 81.71875,67.091797 a 12.018171,12.018171 0 0 0 -11.835938,12.1875 v 95.962893 a 12.018171,12.018171 0 0 0 20.214844,8.78515 l 39.783204,-37.13086 39.7832,37.13086 a 12.018171,12.018171 0 0 0 20.21485,-8.78515 V 79.279297 a 12.018171,12.018171 0 1 0 -24.03321,0 v 68.308593 l -27.76562,-25.91406 a 12.018171,12.018171 0 0 0 -16.39844,0 L 93.916016,147.58789 V 79.279297 A 12.018171,12.018171 0 0 0 81.71875,67.091797 Z"/>
 <path style="opacity:0.3;fill:#ffffff" d="M 177.70508 67.068359 A 12.018171 12.018171 0 0 0 165.8457 79.279297 L 165.8457 81.279297 A 12.018171 12.018171 0 1 1 189.87891 81.279297 L 189.87891 79.279297 A 12.018171 12.018171 0 0 0 177.70508 67.068359 z M 81.71875 67.091797 A 12.018171 12.018171 0 0 0 69.882812 79.279297 L 69.882812 81.279297 A 12.018171 12.018171 0 0 1 81.71875 69.091797 A 12.018171 12.018171 0 0 1 93.916016 81.279297 L 93.916016 79.279297 A 12.018171 12.018171 0 0 0 81.71875 67.091797 z M 129.28906 118.45703 A 12.018171 12.018171 0 0 0 121.68164 121.67383 L 93.916016 147.58789 L 93.916016 149.58789 L 121.68164 123.67383 A 12.018171 12.018171 0 0 1 138.08008 123.67383 L 165.8457 149.58789 L 165.8457 147.58789 L 138.08008 121.67383 A 12.018171 12.018171 0 0 0 129.28906 118.45703 z"/>
 <path style="opacity:0.2" d="M 129.88086 144.89648 L 90.097656 182.02734 A 12.018171 12.018171 0 0 1 69.882812 173.24219 L 69.882812 175.24219 A 12.018171 12.018171 0 0 0 90.097656 184.02734 L 129.88086 146.89648 L 169.66406 184.02734 A 12.018171 12.018171 0 0 0 189.87891 175.24219 L 189.87891 173.24219 A 12.018171 12.018171 0 0 1 169.66406 182.02734 L 129.88086 144.89648 z"/>
</svg>
